X:278
%%etbk:tnset id:85,pos:1,rep:3x,ant:
%%etbk:wsite http://www.thesession.org/tunes/display/1214
%%etbk:pldat 2015-08-16T14:55,2015-07-11T13:08,2014-12-09T17:32,2014-09-26T18:04,2014-04-06T15:47,2014-02-04T18:05,2013-11-21T18:22,2013-11-19T16:03,2013-04-30T15:55
T: Girl Of The House, The
Z: Piano Box Version by Martin Fleischmann
H: Created 2013-02-19 /  Last Modified 2013-02-19
M: 6/8
L: 1/8
R: jig
K: Dmix
|: "D"!5!AG | !3!FF!1!D D !2!(3EF!4!G | !3!G!4!AA !3!G!1!E!4!A | !1!D !3!(3D!2!D!1!D !5!A!4!G!2!E | !3!FAD DAG |
!3!F3 !1!GGG | !2!A2A !3!cde | !4!d!3!c!2!A "A"!1!G!2!E!5!A | "D"!1!D !3!(3D!2!D!1!D !1!D:|
|: !2!AB | "C"!4!c2!2!A {c}A!1!G!2!F | "G"!2!F!1!GG {c}!1!G!2!F!1!G | "D"!2!AdB !4!cAG | !2!A!5!d!2!^c !3!d2!4!e |
!5!fed !2!c!1!A!3!G | !1!E!2!FF !3!G!1!E!3!A | !5!d!4!c!3!A "A"!2!G!1!E!3!A | "D"!1!D !3!(3D!2!D!1!D D:|


